X: 33625
T: Ram's Horns
R: reel
M: 4/4
K: Ddorian
|:A/A/A AD CDEC|A,DDF E2Dc|(3dcB cE CDEC|A,DDF E2Dc:|
|:Addf edcG|Addf egdg|egdg edcG|1 A/A/A ag e2d2:|2 A/A/A ag e2dc||

